fs/arrow_curve_down_left_16_filled.svg

<svg viewBox="0 0 16 16" fill="none" xmlns="http://www.w3.org/2000/svg" height="1em" width="1em">
  <path d="M11.1512 1.37802C11.3567 1.73766 11.2317 2.19579 10.8721 2.4013C8.45801 3.78077 8.25 6.02905 8.25 8.00006L8.25003 12.4394L10.4697 10.2197C10.7626 9.92683 11.2374 9.92682 11.5303 10.2197C11.8232 10.5126 11.8232 10.9875 11.5303 11.2804L8.03038 14.7803C7.88973 14.921 7.69897 15 7.50005 15C7.30114 15 7.11038 14.921 6.96972 14.7803L3.46967 11.2804C3.17678 10.9875 3.17678 10.5126 3.46967 10.2197C3.76256 9.92683 4.23743 9.92682 4.53033 10.2197L6.75003 12.4394L6.75 8.00006C6.75 5.97112 6.94199 2.91945 10.1279 1.09895C10.4875 0.89344 10.9457 1.01839 11.1512 1.37802Z" fill="#212121"/>
</svg>

<svg viewBox="0 0 16 16" fill="none" xmlns="http://www.w3.org/2000/svg" height="1em" width="1em">
  <path d="M11.151 1.378a.75.75 0 0 1-.279 1.023C8.458 3.781 8.25 6.03 8.25 8.001v4.438l2.22-2.22a.75.75 0 1 1 1.06 1.061l-3.5 3.5a.75.75 0 0 1-1.06 0l-3.5-3.5a.75.75 0 0 1 1.06-1.06l2.22 2.22V8c0-2.029.192-5.08 3.378-6.901a.75.75 0 0 1 1.023.279Z" fill="#212121"/>
</svg>
